www/assets/icons/electric_bolt.svg

<svg width="24" height="24" viewBox="0 0 24 24" xmlns="http://www.w3.org/2000/svg" fill='currentColor'><path d="M14.69 2.20993L4.33003 11.4899C3.69003 12.0699 4.05003 13.1399 4.91003 13.2199L13 13.9999L8.15003 20.7599C7.93003 21.0699 7.96003 21.4999 8.23003 21.7699C8.53003 22.0699 9.00003 22.0799 9.31003 21.7899L19.67 12.5099C20.31 11.9299 19.95 10.8599 19.09 10.7799L11 9.99993L15.85 3.23993C16.07 2.92993 16.04 2.49993 15.77 2.22993C15.47 1.92993 15 1.91993 14.69 2.20993Z"/></svg>

<svg xmlns="http://www.w3.org/2000/svg" width="24" height="24" viewBox="0 0 24 24" fill='currentColor'><path d="M14.69 2.21 4.33 11.49c-.64.58-.28 1.65.58 1.73L13 14l-4.85 6.76c-.22.31-.19.74.08 1.01.3.3.77.31 1.08.02l10.36-9.28c.64-.58.28-1.65-.58-1.73L11 10l4.85-6.76c.22-.31.19-.74-.08-1.01a.77.77 0 0 0-1.08-.02"/></svg>
